X: 130
T:Missa Quem dicunt homines / Agnus Dei
N: Derived from Jos1003e-Missa_Quem_dicunt_homines-Agnus.krn
C: Josquin des Prez
%%abc-version 2.0
%%abcx-abcm2ps-target-version 5.9.1 (29 Sep 2008)
%%abc-creator hum2abc beta
%%abcx-conversion-date 2019/02/12 16:15:44
%%abc-edited-by Jesse Rodin
%%abc-edited-by Jesse Rodin (May 2013)
%%abcx-initial-encoding-date 2013/05/09/
%%humdrum-veritas 3619103057
%%humdrum-veritas-data 3583859761
%%linebreak <none>
%%barnumbers 0
L: 1/4
M: 2/1
Q: 1/2=120
V: 1 clef=treble
V: 2 clef=treble
V: 3 clef=treble-8
V: 4 clef=treble-8
V: 5 clef=bass
K: C
[V:1] z8 | 
[V:2] z8 | 
[V:3] z8 | 
[V:4] z8 | 
[V:5] G,4A,3B, | 
[V:1] z8 | 
[V:2] G4A2G2 | 
[V:3] z8 | 
[V:4] z8 | 
[V:5] C4A,2C2- | 
[V:1] z8 | 
[V:2] c3BA2G2 | 
[V:3] z8 | 
[V:4] z8 | 
[V:5] CB,A,G,F,2G,2 | 
[V:1] z8 | 
[V:2] c4B4- | 
[V:3] z4d4 | 
[V:4] z8 | 
[V:5] A,4G,4 | 
[V:1] z8 | 
[V:2] B8 | 
[V:3] e3fg4 | 
[V:4] z4G4 | 
[V:5] z2E,3F,G,2 | 
[V:1] z8 | 
[V:2] z2G2G2G2 | 
[V:3] e2g3fed | 
[V:4] A2G2c3B | 
[V:5] C,8 | 
[V:1] z8 | 
[V:2] A2B2G4 | 
[V:3] c2d2e4 | 
[V:4] A2G2c4 | 
[V:5] z8 | 
[V:1] z8 | 
[V:2] z2G2c3B | 
[V:3] d3ef2e2 | 
[V:4] B4z4 | 
[V:5] G,4A,3B, | 
[V:1] z8 | 
[V:2] A2G2A2G2 | 
[V:3] e8 | 
[V:4] z4c4 | 
[V:5] C4A,2C2- | 
[V:1] z8 | 
[V:2] E2A3GG2- | 
[V:3] z2e2f2e2- | 
[V:4] c2c2d2e2 | 
[V:5] CB,A,G,F,2G,2 | 
[V:1] z8 | 
[V:2] G2^F2G4- | 
[V:3] edc4B2 | 
[V:4] c4z2d2 | 
[V:5] A,4G,4 | 
[V:1] z8 | 
[V:2] G8 | 
[V:3] c8 | 
[V:4] e2c2e4 | 
[V:5] C,4C,2C,2 | 
[V:1] z8 | 
[V:2] z8 | 
[V:3] z2G2G2G2 | 
[V:4] f2g3fe2- | 
[V:5] D,2E,2C,4 | 
[V:1] z8 | 
[V:2] z4z2c2 | 
[V:3] A2B2G2g2 | 
[V:4] e2dcB2e2 | 
[V:5] z2D,2E,2C,2 | 
[V:1] z8 | 
[V:2] c2c2d2e2 | 
[V:3] a2f4e2 | 
[V:4] A3GABc2- | 
[V:5] F,3E,D,2C,2 | 
[V:1] z8 | 
[V:2] c2BAG2c2- | 
[V:3] f4z2g2 | 
[V:4] c2d2e3d/e/ | 
[V:5] F,4E,4 | 
[V:1] z8 | 
[V:2] c2d2B3A/G/ | 
[V:3] a2f2g4 | 
[V:4] f2d2e4 | 
[V:5] z4z2E,2 | 
[V:1] z8 | 
[V:2] A2B2G4 | 
[V:3] c2z2z4 | 
[V:4] z2B2c2d2 | 
[V:5] F,2G,2C,2G,2- | 
[V:1] z8 | 
[V:2] z2G2c3B | 
[V:3] z2d2e2f2- | 
[V:4] G4z4 | 
[V:5] G,A,B,2C2F,G, | 
[V:1] z8 | 
[V:2] A2G2A2G2 | 
[V:3] f2e2d4 | 
[V:4] z4z2G2 | 
[V:5] A,B,C4B,2 | 
[V:1] z8 | 
[V:2] E6D2 | 
[V:3] c3defg2- | 
[V:4] A2c4B2 | 
[V:5] C4z4 | 
[V:1] z8 | 
[V:2] C8 | 
[V:3] g2f2e4 | 
[V:4] A4G3A | 
[V:5] z4C,4 | 
[V:1] z8 | 
[V:2] z8 | 
[V:3] d4z4 | 
[V:4] Bcd3cc2- | 
[V:5] D,2F,4E,2 | 
[V:1] z8 | 
[V:2] z8 | 
[V:3] z2d2e2g2- | 
[V:4] c2B2cBAG | 
[V:5] D,4C,4 | 
[V:1] z8 | 
[V:2] z8 | 
[V:3] g2f2e4 | 
[V:4] A4G2c2- | 
[V:5] z2D,2E,2C,2 | 
[V:1] z8 | 
[V:2] z2G2A2c2- | 
[V:3] d3efga2- | 
[V:4] c2B2c4 | 
[V:5] G,4F,4- | 
[V:1] z8 | 
[V:2] c2B2A4 | 
[V:3] a2g4f2 | 
[V:4] d4c4 | 
[V:5] F,2G,2A,3B, | 
[V:1] z8 | 
[V:2] G3ABcd2- | 
[V:3] e3fg2a2- | 
[V:4] z2c2d2f2- | 
[V:5] C2C,2G,2D,2- | 
[V:1] z8 | 
[V:2] dcc4B2 | 
[V:3] a2g2f2ed | 
[V:4] f2e2d4 | 
[V:5] D,2E,2F,2G,2 | 
[V:1] z8 | 
[V:2] c8- | 
[V:3] e8- | 
[V:4] c2G2A2c2- | 
[V:5] C,8- | 
[V:1] z8 | 
[V:2] c8- | 
[V:3] e8- | 
[V:4] c2B2A4 | 
[V:5] C,8- | 
[V:1] z8 ||  
[V:2] c8 ||  
[V:3] e8 ||  
[V:4] G8 ||  
[V:5] C,8 ||  
[V:1]  [K:C] [K:clef=treble][M:2/1]z8 | 
[V:2]  [K:C] [K:clef=treble][M:2/1]z8 | 
[V:3]  [K:C] [K:clef=treble-8][M:2/1]G6A2 | 
[V:4]  [K:C] [K:clef=treble-8][M:2/1]z8 | 
[V:5]  [K:C] [K:clef=bass][M:2/1]C,4E,2F,2 | 
[V:1] z8 | 
[V:2] z8 | 
[V:3] B3cd2e2- | 
[V:4] z8 | 
[V:5] G,F,G,A,B,2C2- | 
[V:1] z8 | 
[V:2] z8 | 
[V:3] efg3fed | 
[V:4] z8 | 
[V:5] C2B,2C3B, | 
[V:1] z8 | 
[V:2] z8 | 
[V:3] e2fedcBA | 
[V:4] z8 | 
[V:5] A,G,F,2G,3F, | 
[V:1] z8 | 
[V:2] z8 | 
[V:3] e3dcBAG | 
[V:4] z8 | 
[V:5] E,D,A,3G,F,E, | 
[V:1] z8 | 
[V:2] z8 | 
[V:3] d3cBAe2- | 
[V:4] z8 | 
[V:5] D,C,G,3F,E,D, | 
[V:1] z8 | 
[V:2] z8 | 
[V:3] edc4B2 | 
[V:4] z8 | 
[V:5] C,2E,2D,4 | 
[V:1] z8 | 
[V:2] z8 | 
[V:3] c4z2g2 | 
[V:4] z8 | 
[V:5] C,8 | 
[V:1] z8 | 
[V:2] z8 | 
[V:3] g2g2e4 | 
[V:4] z8 | 
[V:5] z2C2C2C2 | 
[V:1] z8 | 
[V:2] z8 | 
[V:3] f4e2cd | 
[V:4] z8 | 
[V:5] A,2B,2C4 | 
[V:1] z8 | 
[V:2] z8 | 
[V:3] efg2GABc | 
[V:4] z8 | 
[V:5] C,3D,E,F,G,A, | 
[V:1] z8 | 
[V:2] z8 | 
[V:3] defdefg2- | 
[V:4] z8 | 
[V:5] B,G,A,B,C2C,D, | 
[V:1] z8 | 
[V:2] z8 | 
[V:3] gfe4d2 | 
[V:4] z8 | 
[V:5] E,F,G,E,F,4 | 
[V:1] z8 | 
[V:2] z8 | 
[V:3] edcBc4 | 
[V:4] z8 | 
[V:5] E,4z2C,2 | 
[V:1] z8 | 
[V:2] z8 | 
[V:3] B4z2c2 | 
[V:4] z8 | 
[V:5] D,2E,2F,3E, | 
[V:1] z8 | 
[V:2] z8 | 
[V:3] d2e2f3e | 
[V:4] z8 | 
[V:5] D,2C,2F,2D,E, | 
[V:1] z8 | 
[V:2] z8 | 
[V:3] d2c2f4 | 
[V:4] z8 | 
[V:5] F,G,A,4G,F, | 
[V:1] z8 | 
[V:2] z8 | 
[V:3] e4z2c2 | 
[V:4] z8 | 
[V:5] C8 | 
[V:1] z8 | 
[V:2] z8 | 
[V:3] d2e2f2ed | 
[V:4] z8 | 
[V:5] z2C,2D,2E,2 | 
[V:1] z8 | 
[V:2] z8 | 
[V:3] c2FGABc2- | 
[V:4] z8 | 
[V:5] F,3E,D,2C,2 | 
[V:1] z8 | 
[V:2] z8 | 
[V:3] c2BAG4- | 
[V:4] z8 | 
[V:5] F,4E,4 | 
[V:1] z8 | 
[V:2] z8 | 
[V:3] G4z2d2 | 
[V:4] z8 | 
[V:5] z2G,2A,2B,2 | 
[V:1] z8 | 
[V:2] z8 | 
[V:3] e2f2g3f | 
[V:4] z8 | 
[V:5] C2B,A,G,2C,D, | 
[V:1] z8 | 
[V:2] z8 | 
[V:3] e2d2g4 | 
[V:4] z8 | 
[V:5] E,F,G,4F,E, | 
[V:1] z8 | 
[V:2] z8 | 
[V:3] f2e4dc | 
[V:4] z8 | 
[V:5] D,2C,2C4- | 
[V:1] z8 | 
[V:2] z8 | 
[V:3] g6fe | 
[V:4] z8 | 
[V:5] C2B,A,G,2A,2 | 
[V:1] z8 | 
[V:2] z8 | 
[V:3] fedcB2d2- | 
[V:4] z8 | 
[V:5] F,2G,4F,E, | 
[V:1] z8 | 
[V:2] z8 | 
[V:3] d2c4B2 | 
[V:4] z8 | 
[V:5] F,E,D,C,D,4 | 
[V:1] z8 ||  
[V:2] z8 ||  
[V:3] c8 ||  
[V:4] z8 ||  
[V:5] C,8 ||  
[V:1]  [K:C] [K:clef=treble][M:2/1]z8 | 
[V:2]  [K:C] [K:clef=treble][M:2/1]z8 | 
[V:3]  [K:C] [K:clef=treble-8][M:2/1]d8 | 
[V:4]  [K:C] [K:clef=treble-8][M:2/1]z8 | 
[V:5]  [K:C] [K:clef=bass][M:2/1]G,6F,2 | 
[V:1] z8 | 
[V:2] z8 | 
[V:3] e6dc | 
[V:4] z8 | 
[V:5] E,4C,2G,2- | 
[V:1] z8 | 
[V:2] z8 | 
[V:3] B2c4B2 | 
[V:4] d8 | 
[V:5] G,2F,E,D,4 | 
[V:1] z8 | 
[V:2] z8 | 
[V:3] c4g4- | 
[V:4] e6dc | 
[V:5] C,8 | 
[V:1] d8 | 
[V:2] G6F2 | 
[V:3] g2fed4 | 
[V:4] B2c3BBA | 
[V:5] G,8 | 
[V:1] e6dc | 
[V:2] E4C2G2- | 
[V:3] c8 | 
[V:4] c4G4 | 
[V:5] C,8 | 
[V:1] B2c4B2 | 
[V:2] G2FED4 | 
[V:3] z2c2g4- | 
[V:4] z8 | 
[V:5] z4G,4 | 
[V:1] c8- | 
[V:2] C4z4 | 
[V:3] g2g/f/e/d/e2e2 | 
[V:4] z8 | 
[V:5] C6C/B,/A,/G,/ | 
[V:1] c4z4 | 
[V:2] z8 | 
[V:3] f2f2d4- | 
[V:4] z8 | 
[V:5] A,2A,2B,2B,2 | 
[V:1] z8 | 
[V:2] G4c4- | 
[V:3] d2e3dcB | 
[V:4] z4c4 | 
[V:5] G,4A,4 | 
[V:1] z8 | 
[V:2] c2c/B/A/G/A2A2 | 
[V:3] A8 | 
[V:4] f6f/e/d/c/ | 
[V:5] F,6A,2 | 
[V:1] G4c4- | 
[V:2] B2B2G4 | 
[V:3] z4c3B | 
[V:4] d2d2e2e2 | 
[V:5] G,4C,4- | 
[V:1] c2c/B/A/G/A2A2 | 
[V:2] z2G2d4- | 
[V:3] AGg4^f2 | 
[V:4] c2e2d4- | 
[V:5] C,4z2D,2 | 
[V:1] B2B2G4- | 
[V:2] d2d/c/B/A/B2B2 | 
[V:3] g8 | 
[V:4] d4B4- | 
[V:5] G,6G,/F,/E,/D,/ | 
[V:1] G2c3BAG | 
[V:2] G4A4- | 
[V:3] e4c4 | 
[V:4] B2c2A4- | 
[V:5] E,2E,2F,2F,2 | 
[V:1] F3DG4- | 
[V:2] A2d3cBA | 
[V:3] d8 | 
[V:4] A4B4- | 
[V:5] D,4G,3F, | 
[V:1] G4z2d2 | 
[V:2] G2c4B2 | 
[V:3] z2g2g2g2 | 
[V:4] B2c2d4 | 
[V:5] E,2C,2G,4 | 
[V:1] e2c4BA | 
[V:2] cBAGA4 | 
[V:3] e4f4 | 
[V:4] c4F4 | 
[V:5] C,4z4 | 
[V:1] G6FE | 
[V:2] B8 | 
[V:3] e4d3c | 
[V:4] z8 | 
[V:5] z2E,2G,2G,2 | 
[V:1] D2G4^F2 | 
[V:2] z2B2d2d2 | 
[V:3] B3A/G/A4 | 
[V:4] z4z2A2 | 
[V:5] G,2G,2D,4 | 
[V:1] G2D2F3G | 
[V:2] d2d2A4 | 
[V:3] G4z2F2 | 
[V:4] d2d2d2d2 | 
[V:5] z2G,2F,2D,2- | 
[V:1] A6G2 | 
[V:2] d4c3d | 
[V:3] f4e4 | 
[V:4] A4c3B | 
[V:5] D,E,F,G,A,2C2- | 
[V:1] G4z2G2 | 
[V:2] e2d2G4 | 
[V:3] z2d2e2g2- | 
[V:4] G4z2c2 | 
[V:5] C2B,2C4 | 
[V:1] A2c4B2 | 
[V:2] c4z4 | 
[V:3] g2^f2g3=f | 
[V:4] c2c2d4 | 
[V:5] A,4G,2G,2 | 
[V:1] A2G4^F2 | 
[V:2] z2G2A2c2- | 
[V:3] e2d2e2dc | 
[V:4] c2B2A4 | 
[V:5] A,2B,2C4 | 
[V:1] G2G2A2B2 | 
[V:2] c2B2A2G2- | 
[V:3] d4c2B2 | 
[V:4] G4z2d2 | 
[V:5] z8 | 
[V:1] c8 | 
[V:2] G2^F2G4 | 
[V:3] A4G2c2 | 
[V:4] e2c3BG2 | 
[V:5] z4C,4 | 
[V:1] z2c2d2f2 | 
[V:2] z2G2A2B2 | 
[V:3] d2e2f3e/d/ | 
[V:4] A2G2d4 | 
[V:5] F,2E,2D,4 | 
[V:1] edcBA2G2 | 
[V:2] c2C2D2E2 | 
[V:3] g4z2c2 | 
[V:4] c4z2G2 | 
[V:5] z2C,2F,2E,2 | 
[V:1] d3c/d/e2c2- | 
[V:2] F3E/D/G4- | 
[V:3] d2f2e4 | 
[V:4] A2B2cBcd | 
[V:5] D,4C,4 | 
[V:1] c2B2A2G2 | 
[V:2] G4z2E2 | 
[V:3] z2B2c4 | 
[V:4] e2d2z2G2 | 
[V:5] G,4F,2E,2 | 
[V:1] d4z2G2 | 
[V:2] F2D2G4 | 
[V:3] d4e4 | 
[V:4] A2B2cBcd | 
[V:5] D,4z2C,2 | 
[V:1] A2B2c4 | 
[V:2] z2D2E2F2 | 
[V:3] z2G2c4 | 
[V:4] e2d3cc2- | 
[V:5] C2B,2A,4 | 
[V:1] z2G2A2B2 | 
[V:2] G4z4 | 
[V:3] d4e2g2- | 
[V:4] c2B2A2d2- | 
[V:5] G,4z2G,2 | 
[V:1] cBcde2d2 | 
[V:2] z4z2D2 | 
[V:3] g2^f2g4- | 
[V:4] d2c4B2 | 
[V:5] A,4G,4 | 
[V:1] z2G2A2B2 | 
[V:2] E4F2G2 | 
[V:3] g4z2d2 | 
[V:4] c3BA2G2 | 
[V:5] C,2C4B,2 | 
[V:1] cBcde2d2- | 
[V:2] A3Bc2G2 | 
[V:3] e3fg2d2 | 
[V:4] c4z2G2 | 
[V:5] A,G,C4B,2 | 
[V:1] dcc4B2 | 
[V:2] A4z2d2 | 
[V:3] e2f2g4 | 
[V:4] c4d4 | 
[V:5] A,4G,4 | 
[V:1] c8- | 
[V:2] e2c3BAG | 
[V:3] e3fgea2- | 
[V:4] c8- | 
[V:5] C,3D,E,2F,2- | 
[V:1] c8- | 
[V:2] F2G2A4 | 
[V:3] a2g2f4 | 
[V:4] c8- | 
[V:5] F,2E,2F,4 | 
[V:1] c8 |]  
[V:2] G8 |]  
[V:3] e8 |]  
[V:4] c8 |]  
[V:5] C,8 |]  



